X:1
T:Nazareth, LMD
T:Nazareth, LMD
T:Theodore Edson Perkins, 1874
T:Public Domain Courtesy of the Cyber Hymnal™
C:Theodore Edson Perkins, 1874
Z:Public Domain
Z:Courtesy of the Cyber Hymnal™
%%score ( 1 2 ) ( 3 4 )
L:1/8
Q:1/4=110
M:6/8
K:G
V:1 treble 
V:2 treble 
V:3 bass 
V:4 bass 
V:1
 D | D2 [DG] [DG]2 [FA] | [GB]2 [Gc] [Gd]2 [Ge] | [Gd]2 [GB] (G>F)[DG] | [FA]2 [GB] [FA]2 D | %5
 D2 [DG] [DG]2 [FA] | [GB]2 [Gc] [Gd]2 [Ge] | [Gd]2 [GB] (G>F)[DG] | [GB]2 [FA] G2 [GB] | %9
 [FA]2 [GB] [Ac]2 [FA] | [GB]2 [Gc] [Gd]2 [DG] | [DG]2 [DG] (G>F)[DG] | [FA]2 [GB] [FA]2 D | %13
 D2 [DG] [DG]2 [FA] | [GB]2 [Gc] [Gd]2 [Gd] | (d>e)[Gd] (dB)G | [GB]2 [FA] G2 |] %17
V:2
 D | D2 x4 | x6 | x3 D2 x | x5 D | D2 x4 | x6 | x3 D2 x | x3 G2 x | x6 | x6 | x3 D2 x | x5 D | %13
 D2 x4 | x6 | G2 G2 G x | x3 G2 |] %17
V:3
 [G,B,] | [G,B,]2 [G,B,] [G,B,]2 [D,D] | [G,D]2 [G,A,] [G,B,]2 [G,C] | %3
 [G,B,]2 [G,D] ([B,D]>[A,C])[G,B,] | [D,D]2 [D,D] [D,D]2 [D,C] | [G,B,]2 [G,B,] [G,B,]2 [D,D] | %6
 [G,D]2 [G,A,] [G,B,]2 [G,C] | [G,B,]2 [G,D] ([B,D]>[A,C])[G,B,] | [D,D]2 [D,C] [G,,B,]2 [G,D] | %9
 [D,D]2 [D,D] [D,D]2 [D,D] | [G,D]2 [G,A,] [G,B,]2 [G,B,] | [G,B,]2 [G,B,] ([B,D]>[A,C])[G,B,] | %12
 [D,D]2 [D,D] [D,D]2 [F,C] | [G,B,]2 [G,B,] [G,B,]2 [D,D] | [G,D]2 [G,A,] [G,B,]2 [G,B,] | %15
 (B,>C)[G,B,] (B,D)[G,B,] | [D,D]2 [D,C] [G,,B,]2 |] %17
V:4
 x | x6 | x6 | x6 | x6 | x6 | x6 | x6 | x6 | x6 | x6 | x6 | x6 | x6 | x6 | G,2 G,2 x2 | x5 |] %17

